X: 22499
T: Lady Dolly Primrose's Minuet
R: waltz
M: 3/4
K: Gmajor
B4 (3ABc|B2 A2 G2|d4 (3cde|d2 c2 B2|
gbagfe|d2 cBAG|FGABcB|B2 A4:|
d4 (3cde|A2 B2 c2|E2 A2 G2|F2 EF D2|
GBAc B2|cgfa g2|e/d/c B2 A2|G6:|

